assets/icons/icon_book.svg

<?xml version="1.0" encoding="UTF-8"?>
<svg xmlns="http://www.w3.org/2000/svg" viewBox="0 0 48 48">
  <defs>
    <style>
      .cls-1 {
        fill: none;
        opacity: .2;
      }
    </style>
  </defs>
  <g id="guid">
    <rect class="cls-1" x="0" width="48" height="48"/>
    <rect class="cls-1" x="4" y="4" width="40" height="40"/>
  </g>
  <g id="Layer_2" data-name="Layer 2">
    <path d="M34,5H14c-4.42,0-8,3.58-8,8v22c0,4.42,3.58,8,8,8h20c4.42,0,8-3.58,8-8V13c0-4.42-3.58-8-8-8ZM32,8v5.16l-1.3-.57-1.2-.53-1.2.53-1.3.57v-5.16h5ZM9,35V13c0-2.41,1.72-4.43,4-4.9v31.8c-2.28-.46-4-2.48-4-4.9ZM39,35c0,2.76-2.24,5-5,5H16V8h8v6.69c0,1.15.95,2,2,2,.27,0,.54-.05.8-.17l2.7-1.18,2.7,1.18c.27.12.54.17.8.17,1.05,0,2-.85,2-2v-6.59c2.28.46,4,2.48,4,4.9v22Z"/>
  </g>
</svg>

<svg width="48" height="48" viewBox="0 0 48 48" fill="none" xmlns="http://www.w3.org/2000/svg">
<g clip-path="url(#clip0_2188_3188)">
<path d="M34 5H14C9.58 5 6 8.58 6 13V35C6 39.42 9.58 43 14 43H34C38.42 43 42 39.42 42 35V13C42 8.58 38.42 5 34 5ZM32 8V13.16L30.7 12.59L29.5 12.06L28.3 12.59L27 13.16V8H32ZM9 35V13C9 10.59 10.72 8.57 13 8.1V39.9C10.72 39.44 9 37.42 9 35ZM39 35C39 37.76 36.76 40 34 40H16V8H24V14.69C24 15.84 24.95 16.69 26 16.69C26.27 16.69 26.54 16.64 26.8 16.52L29.5 15.34L32.2 16.52C32.47 16.64 32.74 16.69 33 16.69C34.05 16.69 35 15.84 35 14.69V8.1C37.28 8.56 39 10.58 39 13V35Z" fill="black"/>
</g>
<defs>
<clipPath id="clip0_2188_3188">
<rect width="48" height="48" fill="white"/>
</clipPath>
</defs>
</svg>
